X:1
T:Title
%%score 1 { ( 2 5 ) | ( 3 4 ) }
L:1/8
Q:1/4=87
M:6/16
K:G
V:1 treble nm="Voice"
V:2 treble nm="Piano"
V:5 treble 
V:3 bass 
V:4 bass 
V:1
"^Allegretto" z | z3 | z3 | z3 | z3 | z3 | z3 | z3 | z3 | z2 z/ D/ | D D E/ F/ | G3/2 D/ D/ E/ | %12
 =F3/2 E/ D/ C/ | (E2 D) | D D E/ F/ | G3/2 D/ D/ E/ | (=F/E/) D/ (E/D/) C/ |!<(! D3!<)! | %18
!mf! G F/ E/ D | A G/ =F/ E | _B A/ G/ =F/ E/ |!ff! c3- |!>(! c3-!>)! |!p! c3- | c z3/2 | z3 | %26
"^rit."[Q:1/4=80] z3/2 | z5/2 |] %28
V:2
!mf!!>(! z/ ([F,CD]/- | [F,CD]/[G,B,]/[B,D]/!>)![CE]) z/ | %2
 z/!<(! ([F,C]/[G,B,]/[B,D]/[CE]/!<)!!mf![A,D]/- | [A,D]/!<(![A,C]/[B,D]/[CE]/[DF]/!<)!!mf![EG]/- | %4
 [EG]/[DF]/!>(![CE]/[B,D]/[A,C]/[G,B,]/ | [F,A,]/[G,B,]/[A,C]/[B,D]/!>)!!mf![CE]/[DF]/- | %6
 [DF]/[CE]/[B,D]/[A,C]/[G,B,]/[F,A,]/ | [E,G,]/[F,A,]/[G,B,]/[A,C]/[B,D]/!>(![CE]/- | %8
 [CE]/[B,D]/[A,C]/[G,B,]/[F,A,]/!>)![E,G,]/- | [E,G,]/[D,F,]/[E,G,]/[F,A,]) z/ | %10
!pp! ([F,C]/[G,B,]/[B,D]/[CE]/[DF]/[CA]/ | [B,G]/[CA]/[DB]/[CA]/[B,G]/[G,D]/ | %12
 [=F,C]/[G,B,]/[A,C]/[G,B,]/[A,C]/[CE]/) |!<(! ([CE]/[D=F]/[EG]/[CE]/[DF]/!<)!!mf![B,D]/) | %14
!pp! ([F,C]/[G,B,]/[B,D]/[CE]/[DF]/[CA]/ | [B,G]/[CA]/[DB]/[CA]/[B,G]/[G,D]/ | %16
 [=F,C]/[G,B,]/[A,C]/[B,D]/[CE]/[D=F]/ | [CE]/[D=F]/[EG]/[FA]/[EG]/[DF]/) | %18
!mp!!<(! [CE]/[EG]/[GB]/[Ac]/[Bd]/[ce]/ | [D=F]/[FA]/[G_B]/[Ac]/[Bd]/[ce]/ | %20
 [EG]/[G_B]/[Ac]/[Bd]/[ce]/[d=f]/!<)! |!f! [eg]/!<(![=fa]/[eg]/[df]/[ce]/[Bd]/ | %22
 [Ac]/[Bd]/[ce]/[d=f]/[eg]/[fa]/ | [gb]/!<)![ac']/[gb]/[=fa]/[eg]/[df]/ | %24
 [ce]/[d=f]/[eg]/[df]/[ce]/[Bd]/ |!>(! [Ac]/[Bd]/[ce]/[Bd]/[Ac]/[GB]/ | %26
 [FA]/[EG]/[DF]/[CE]/[A,D]/ |[K:bass] (G,,/B,,/D,/G,/) !fermata!z/ |] %28
V:3
 (D,, | G,,3/2- G,,) (G,,,/ | G,,3/2- G,,) (F,,,/ | F,,3/2- F,,) (E,,,/ | E,,3/2- E,,) (E,,,/ | %5
 D,,3/2- D,,) (D,,,/ | D,,3/2- D,,) (D,,,/ | C,,3/2- C,,) (C,,,/ | C,,3/2- C,,) (C,,,/ | %9
 D,,3/2- D,,) (D,,,/ | G,,3/2- G,,) (F,,,/ | G,,3/2- G,,) (G,,,/ | =F,,3/2- F,,) (=F,,,/ | %13
 G,,,3/2- G,,,) (G,,,/ | G,,3/2- G,,) (F,,,/ | G,,3/2- G,,) (G,,,/ | =F,,3/2- F,,) (=F,,,/ | %17
 G,,,3/2- G,,,) (G,,,/ | G,,3/2- G,,) (G,,,/ | G,,3/2- G,,) (G,,,/ | G,,3/2- G,,) (G,,,/ | %21
 G,,3/2- G,,) (G,,,/ | G,,3/2- G,,) (G,,,/ | G,,3/2- G,,) (G,,,/ | G,,3/2- G,,) (G,,,/ | %25
 G,,3/2- G,,) (G,,,/ | G,,3/2- G,,) (G,,,/ | G,,,3/2- G,,,/) z/ |] %28
V:4
 x | G,,,3/2- G,,, x/ | G,,,3/2- G,,, x/ | F,,,3/2- F,,, x/ | E,,,3/2- E,,, x/ | D,,,3/2- D,,, x/ | %6
 D,,,3/2- D,,, x/ | C,,,3/2- C,,, x/ | C,,,3/2- C,,, x/ | D,,,3/2- D,,, x/ | G,,,3/2- G,,, x/ | %11
 G,,,3/2- G,,, x/ | =F,,,3/2- F,,, x/ | G,,,,3/2- G,,,, x/ | G,,,3/2- G,,, x/ | G,,,3/2- G,,, x/ | %16
 =F,,,3/2- F,,, x/ | G,,,,3/2- G,,,, x/ | G,,,3/2- G,,, x/ | G,,,3/2- G,,, x/ | G,,,3/2- G,,, x/ | %21
 G,,,3/2- G,,, x/ | G,,,3/2- G,,, x/ | G,,,3/2- G,,, x/ | G,,,3/2- G,,, x/ | G,,,3/2- G,,, x/ | %26
 G,,,3/2- G,,, x/ | x5/2 |] %28
V:5
 x | x3 | x3 | x3 | x3 | x3 | x3 | x3 | x3 | x3 | x3 | x3 | x3 | x3 | x3 | x3 | x3 | x3 | x3 | x3 | %20
 x3 | x3 | x3 | x3 | x3 | x3 | x3/2 F, |[K:bass] x5/2 |] %28

